!!! OTL: Berkowitz92
!!! Chapter: 1
!!! Section: I
!!! Page: 23
!!! Mode: 
!!! Encoder: DJB
**kern
*staff1
*I"Piano
=1-
*clefG2
*k[f#c#g#d#]
*E:
*M4/4
4b\
4g#/
4e/
4r
=2
8.b/L
16a/Jk
8g#/L
8f#/J
4e/
8f#/L
8g#/J
=3
4.a/
8g#/
4.f#/
8e/
=4
4b\
4B/
2r
=5
4b\
4g#/
4.ee\
8ee\
=6
8.dd#\L
16cc#\Jk
8b/L
8a/J
4g#/
4r
=7
8.g#/L
16g#/Jk
4a/
8.g#/L
16f#/Jk
4e/
=8
!!linebreak:original
4f#/
4g#/
4e/
4r
==
*-
